assets/images/icons/next-wh.svg

<svg width="30" height="29" viewBox="0 0 30 29" fill="none" xmlns="http://www.w3.org/2000/svg">
<g clip-path="url(#clip0)">
<path d="M20.2141 24.3877C19.7912 24.7965 19.1253 24.7965 18.7024 24.3877C18.2937 23.9927 18.2937 23.3352 18.7024 22.9411L26.3677 15.5314L1.07332 15.5314C0.483682 15.5314 -0.000218278 15.0783 -0.000218328 14.5083C-0.000218378 13.9384 0.483682 13.4706 1.07332 13.4706L26.3677 13.4706L18.7024 6.07463C18.2937 5.66579 18.2937 5.00741 18.7024 4.6133C19.1253 4.20446 19.7912 4.20446 20.2141 4.6133L29.694 13.7772C30.1026 14.1722 30.1026 14.8297 29.694 15.2238L20.2141 24.3877Z" fill="#fff"/>
</g>
<defs>
<clipPath id="clip0">
<rect x="30" y="29" width="30" height="29" transform="rotate(180 30 29)" fill="white"/>
</clipPath>
</defs>
</svg>

<svg width="30" height="29" fill="none" xmlns="http://www.w3.org/2000/svg"><g clip-path="url(#clip0)"><path d="M20.214 24.388a1.085 1.085 0 01-1.512 0 1.007 1.007 0 010-1.447l7.666-7.41H1.073c-.59 0-1.073-.453-1.073-1.023 0-.57.484-1.037 1.073-1.037h25.295l-7.666-7.396a1.024 1.024 0 010-1.462 1.085 1.085 0 011.512 0l9.48 9.164a1.007 1.007 0 010 1.447l-9.48 9.164z" fill="#fff"/></g><defs><clipPath id="clip0"><path transform="rotate(180 30 29)" fill="#fff" d="M30 29h30v29H30z"/></clipPath></defs></svg>
